svg/Pictogram/pictograms-nps-water-surfing.svg

<svg xmlns="http://www.w3.org/2000/svg" viewBox="0 0 256 256"><path d="m0 0c-.541 0-.981-.44-.981-.981v-7.522c0-.541.44-.981.981-.981h7.521c.541 0 .981.44.981.981v7.522c0 .541-.44.981-.981.981h-7.521" fill="#fff" transform="matrix(25.90045 0 0-25.90045 30.601 5.165)"/><path d="m0 0c.652 0 1.182.529 1.182 1.182v7.521c0 .652-.53 1.182-1.182 1.182h-7.521c-.652 0-1.181-.53-1.181-1.182v-7.521c0-.653.529-1.182 1.181-1.182h7.521" transform="matrix(25.90045 0 0-25.90045 225.39 256)"/><g fill="#fff"><path d="m0 0c2.317-.975 4.077-1.543 6.556-2.324.05-.008.097.027.105.08.008.051-.027.099-.078.109-3.904 1.229-6.97 2.59-7.669 2.906-.072.03-.156-.003-.184-.074-.029-.072.002-.15.073-.177.174-.079.345-.155.511-.227l-.55-.42c-.063-.092-.035-.209.056-.271.069-.047.166-.041.233.002l.947.396" transform="matrix(25.90045 0 0-25.90045 56.805 172.71)"/><path d="m0 0c.365 0 .66.297.66.662 0 .365-.295.662-.66.662-.367 0-.662-.297-.662-.662 0-.365.295-.662.662-.662" transform="matrix(25.90045 0 0-25.90045 176.77 66.2)"/><path d="m0 0l1.406.691 1.305-1.201c.059-.056.139-.092.225-.092.175.002.316.145.314.319 0 .094-.043.178-.107.236l-1.866 1.713c-.062.061-.134.109-.214.145l-1.452.517-.66.955c-.051.071-.129.117-.221.129-.171.02-.33-.105-.349-.279-.008-.072.001-.143.045-.201l.674-.977c.031-.039.07-.072.117-.094l.781-.306-1.283-.657c-.18-.101-.307-.281-.342-.49l.006-1.174-1.187-.535c-.132-.064-.228-.197-.234-.355-.001-.227.166-.416.393-.426.07-.004.138.012.197.041l1.452.656c.104.055.182.155.207.276l-.002.73 1.01-.902-.186-1.537c0-.001-.002-.02-.002-.03-.009-.226.166-.418.393-.427.213-.008.395.146.424.355l.217 1.754c0 .008.002.016.002.023.003.123-.045.235-.127.313l-.934.83" transform="matrix(25.90045 0 0-25.90045 141.06 107.78)"/></g></svg>

<?xml version="1.0" encoding="UTF-8" standalone="no"?>
<!-- Created with Inkscape (http://www.inkscape.org/) -->
<svg
   xmlns:dc="http://purl.org/dc/elements/1.1/"
   xmlns:cc="http://creativecommons.org/ns#"
   xmlns:rdf="http://www.w3.org/1999/02/22-rdf-syntax-ns#"
   xmlns:svg="http://www.w3.org/2000/svg"
   xmlns="http://www.w3.org/2000/svg"
   xmlns:sodipodi="http://sodipodi.sourceforge.net/DTD/sodipodi-0.dtd"
   xmlns:inkscape="http://www.inkscape.org/namespaces/inkscape"
   width="256"
   height="256"
   id="svg5294"
   sodipodi:version="0.32"
   inkscape:version="0.46"
   version="1.0"
   sodipodi:docname="pictograms-nps-water-surfing-2.svg"
   inkscape:output_extension="org.inkscape.output.svg.inkscape">
  <defs
     id="defs5296">
    <inkscape:perspective
       sodipodi:type="inkscape:persp3d"
       inkscape:vp_x="0 : 526.18109 : 1"
       inkscape:vp_y="0 : 1000 : 0"
       inkscape:vp_z="744.09448 : 526.18109 : 1"
       inkscape:persp3d-origin="372.04724 : 350.78739 : 1"
       id="perspective5302" />
  </defs>
  <sodipodi:namedview
     id="base"
     pagecolor="#ffffff"
     bordercolor="#666666"
     borderopacity="1.0"
     gridtolerance="10000"
     guidetolerance="10"
     objecttolerance="10"
     inkscape:pageopacity="0.0"
     inkscape:pageshadow="2"
     inkscape:zoom="1.4"
     inkscape:cx="124.57192"
     inkscape:cy="109.97938"
     inkscape:document-units="px"
     inkscape:current-layer="layer1"
     showgrid="false"
     inkscape:window-width="747"
     inkscape:window-height="674"
     inkscape:window-x="0"
     inkscape:window-y="309" />
  <metadata
     id="metadata5299">
    <rdf:RDF>
      <cc:Work
         rdf:about="">
        <dc:format>image/svg+xml</dc:format>
        <dc:type
           rdf:resource="http://purl.org/dc/dcmitype/StillImage" />
      </cc:Work>
    </rdf:RDF>
  </metadata>
  <g
     inkscape:label="Layer 1"
     inkscape:groupmode="layer"
     id="layer1">
    <g
       id="g4512"
       transform="matrix(25.900445,0,0,-25.900445,30.60148,5.1645488)">
      <path
         d="M 0,0 C -0.541,0 -0.981,-0.44 -0.981,-0.981 L -0.981,-8.503 C -0.981,-9.044 -0.541,-9.484 0,-9.484 L 7.521,-9.484 C 8.062,-9.484 8.502,-9.044 8.502,-8.503 L 8.502,-0.981 C 8.502,-0.44 8.062,0 7.521,0 L 0,0 z"
         style="fill:#ffffff;fill-opacity:1;fill-rule:nonzero;stroke:none"
         id="path4514" />
    </g>
    <g
       id="g4516"
       transform="matrix(25.900445,0,0,-25.900445,225.38567,256)">
      <path
         d="M 0,0 C 0.652,0 1.182,0.529 1.182,1.182 L 1.182,8.703 C 1.182,9.355 0.652,9.885 0,9.885 L -7.521,9.885 C -8.173,9.885 -8.702,9.355 -8.702,8.703 L -8.702,1.182 C -8.702,0.529 -8.173,0 -7.521,0 L 0,0 z"
         style="fill:#000000;fill-opacity:1;fill-rule:nonzero;stroke:none"
         id="path4518" />
    </g>
    <g
       id="g4520"
       transform="matrix(25.900445,0,0,-25.900445,56.805271,172.70914)">
      <path
         d="M 0,0 C 2.317,-0.975 4.077,-1.543 6.556,-2.324 C 6.606,-2.332 6.653,-2.297 6.661,-2.244 C 6.669,-2.193 6.634,-2.145 6.583,-2.135 C 2.679,-0.906 -0.387,0.455 -1.086,0.771 C -1.158,0.801 -1.242,0.768 -1.27,0.697 C -1.299,0.625 -1.268,0.547 -1.197,0.52 C -1.023,0.441 -0.852,0.365 -0.686,0.293 L -1.236,-0.127 C -1.299,-0.219 -1.271,-0.336 -1.18,-0.398 C -1.111,-0.445 -1.014,-0.439 -0.947,-0.396 L 0,0 z"
         style="fill:#ffffff;fill-opacity:1;fill-rule:nonzero;stroke:none"
         id="path4522" />
    </g>
    <g
       id="g4524"
       transform="matrix(25.900445,0,0,-25.900445,176.77323,66.198844)">
      <path
         d="M 0,0 C 0.365,0 0.66,0.297 0.66,0.662 C 0.66,1.027 0.365,1.324 0,1.324 C -0.367,1.324 -0.662,1.027 -0.662,0.662 C -0.662,0.297 -0.367,0 0,0"
         style="fill:#ffffff;fill-opacity:1;fill-rule:nonzero;stroke:none"
         id="path4526" />
    </g>
    <g
       id="g4528"
       transform="matrix(25.900445,0,0,-25.900445,141.05921,107.77963)">
      <path
         d="M 0,0 L 1.406,0.691 L 2.711,-0.51 C 2.77,-0.566 2.85,-0.602 2.936,-0.602 C 3.111,-0.6 3.252,-0.457 3.25,-0.283 C 3.25,-0.189 3.207,-0.105 3.143,-0.047 L 1.277,1.666 C 1.215,1.727 1.143,1.775 1.063,1.811 L -0.389,2.328 L -1.049,3.283 C -1.1,3.354 -1.178,3.4 -1.27,3.412 C -1.441,3.432 -1.6,3.307 -1.619,3.133 C -1.627,3.061 -1.609,2.99 -1.574,2.932 L -0.9,1.955 C -0.869,1.916 -0.83,1.883 -0.783,1.861 L -0.002,1.555 L -1.285,0.898 C -1.465,0.797 -1.592,0.617 -1.627,0.408 L -1.621,-0.766 L -2.808,-1.301 C -2.94,-1.365 -3.036,-1.498 -3.042,-1.656 C -3.052,-1.883 -2.876,-2.072 -2.649,-2.082 C -2.579,-2.086 -2.511,-2.07 -2.452,-2.041 L -1,-1.385 C -0.896,-1.33 -0.818,-1.23 -0.793,-1.109 L -0.795,-0.379 L 0.213,-1.281 L 0.027,-2.818 C 0.027,-2.828 0.025,-2.838 0.025,-2.848 C 0.016,-3.074 0.191,-3.266 0.418,-3.275 C 0.631,-3.283 0.813,-3.129 0.842,-2.92 L 1.059,-1.166 C 1.059,-1.158 1.061,-1.15 1.061,-1.143 C 1.064,-1.02 1.016,-0.908 0.934,-0.83 L 0,0 z"
         style="fill:#ffffff;fill-opacity:1;fill-rule:nonzero;stroke:none"
         id="path4530" />
    </g>
  </g>
</svg>
